assets/svgs/ggh.svg

<?xml version="1.0" encoding="UTF-8" standalone="no"?>
<svg
   xmlns:dc="http://purl.org/dc/elements/1.1/"
   xmlns:cc="http://creativecommons.org/ns#"
   xmlns:rdf="http://www.w3.org/1999/02/22-rdf-syntax-ns#"
   xmlns:svg="http://www.w3.org/2000/svg"
   xmlns="http://www.w3.org/2000/svg"
   xmlns:sodipodi="http://sodipodi.sourceforge.net/DTD/sodipodi-0.dtd"
   xmlns:inkscape="http://www.inkscape.org/namespaces/inkscape"
   version="1.1"
   id="Layer_1"
   x="0px"
   y="0px"
   enable-background="new 0 0 566.929 67.639"
   sodipodi:docname="ggh.svg"
   width="264.00009"
   height="43.999676"
   inkscape:version="0.92.5 (2060ec1f9f, 2020-04-08)">
  <metadata
     id="metadata22">
    <rdf:RDF>
      <cc:Work
         rdf:about="">
        <dc:format>image/svg+xml</dc:format>
        <dc:type
           rdf:resource="http://purl.org/dc/dcmitype/StillImage" />
      </cc:Work>
    </rdf:RDF>
  </metadata>
  <defs
     id="defs20" />
  <sodipodi:namedview
     pagecolor="#ffffff"
     bordercolor="#666666"
     borderopacity="1"
     objecttolerance="10"
     gridtolerance="10"
     guidetolerance="10"
     inkscape:pageopacity="0"
     inkscape:pageshadow="2"
     inkscape:window-width="640"
     inkscape:window-height="480"
     id="namedview18"
     showgrid="false"
     inkscape:zoom="2.36"
     inkscape:cx="50.000193"
     inkscape:cy="-6"
     inkscape:window-x="72"
     inkscape:window-y="27"
     inkscape:window-maximized="0"
     inkscape:current-layer="Layer_1" />
  <g
     transform="matrix(0.44,0,0,0.435372,8.4593059e-5,-1.4089256e-4)"
     id="g13">
    <path
       id="path5"
       d="m 225.74,59.585 c -5.057,6.87 -10.066,8.822 -12.257,9.875 -2.187,1.056 -5.503,1.883 -8.403,1.883 -8.137,0 -14.486,-2.652 -19.051,-7.938 -4.565,-5.308 -6.846,-12.748 -6.846,-22.401 0,-11.408 2.878,-21.085 8.659,-29.072 5.779,-7.962 13.442,-11.93 22.992,-11.93 7.245,0 13.171,2.034 17.811,6.125 4.638,4.071 6.946,10.47 6.946,19.175 h -14.015 c 0,-4.167 -0.92,-7.094 -2.758,-8.78 -1.832,-1.663 -4.466,-2.508 -7.911,-2.508 -5.631,0 -9.973,2.755 -13.074,8.238 -3.075,5.506 -4.641,11.755 -4.641,18.776 0,4.789 1.02,8.708 3.002,11.732 2.01,3.053 5.009,4.565 9.007,4.565 4.167,0 7.389,-1.192 9.722,-3.549 2.308,-2.329 4.019,-5.358 5.111,-9.055 h -13.05 l 2.112,-12.699 h 25.448 l -2.157,12.301 c 0.003,0.006 -1.611,8.391 -6.647,15.262 z"
       style="fill:#ffffff;fill-opacity:1"
       inkscape:connector-curvature="0" />
    <polygon
       id="polygon9"
       points="323.102,69.684 332.751,17.044 311.467,69.684 301.423,69.684 296.785,17.068 289.462,69.684 277.064,69.684 288.397,1.764 305.789,1.764 309.684,49.588 329.23,1.637 346.74,1.764 335.355,69.684 "
       style="fill:#ffffff;fill-opacity:1" />
    <polygon
       id="polygon11"
       points="377.646,41.23 357.629,41.23 355.052,55.692 377.646,55.692 375.419,69.684 339.797,69.684 351.057,1.689 386.254,1.689 384.1,15.777 361.947,15.777 359.714,28.057 379.734,28.057 "
       style="fill:#ffffff;fill-opacity:1" />
    <path
       id="path13"
       d="m 253.028,1.637 -27.385,68.047 h 13.346 l 4.885,-13.273 h 17.464 l 1.14,13.273 h 12.923 L 267.662,1.64 h -14.634 z m -4.912,43.166 9.924,-27.065 2.305,27.065 z"
       style="fill:#ffffff;fill-opacity:1"
       inkscape:connector-curvature="0" />
    <path
       id="path5_1_"
       d="m 455.384,59.585 c -5.06,6.87 -10.063,8.822 -12.254,9.875 -2.19,1.056 -5.506,1.883 -8.406,1.883 -8.134,0 -14.486,-2.652 -19.048,-7.935 -4.568,-5.311 -6.849,-12.751 -6.849,-22.401 0,-11.411 2.878,-21.085 8.659,-29.072 5.778,-7.962 13.442,-11.933 22.995,-11.933 7.242,0 13.171,2.037 17.808,6.128 4.641,4.071 6.946,10.47 6.946,19.175 h -14.012 c 0,-4.167 -0.917,-7.094 -2.755,-8.78 -1.835,-1.663 -4.466,-2.505 -7.914,-2.505 -5.631,0 -9.973,2.752 -13.071,8.235 -3.078,5.506 -4.641,11.755 -4.641,18.776 0,4.789 1.017,8.708 2.999,11.732 2.013,3.053 5.012,4.565 9.007,4.565 4.17,0 7.392,-1.189 9.725,-3.549 2.308,-2.329 4.019,-5.355 5.111,-9.054 h -13.05 l 2.109,-12.7 h 25.451 l -2.16,12.304 c 0,0 -1.614,8.385 -6.65,15.256 z"
       style="fill:#ffffff;fill-opacity:1"
       inkscape:connector-curvature="0" />
    <polygon
       id="polygon15"
       points="499.466,41.23 479.447,41.23 476.846,55.692 499.466,55.692 497.234,69.705 461.611,69.705 472.875,1.689 508.075,1.689 505.917,15.777 483.761,15.777 481.532,28.081 501.524,28.081 "
       style="fill:#ffffff;fill-opacity:1" />
    <path
       id="path17"
       d="m 525.783,1.665 -27.385,68.043 h 13.373 l 4.858,-13.273 h 17.488 l 1.141,13.273 h 12.899 l -7.74,-68.043 z m -4.888,43.135 9.9,-27.062 2.332,27.062 z"
       style="fill:#ffffff;fill-opacity:1"
       inkscape:connector-curvature="0" />
    <path
       id="path19"
       d="m 568.846,31.578 2.978,-16.743 h 7.142 c 2.628,0 4.59,0.471 5.905,1.415 1.313,0.966 1.958,2.876 1.958,5.754 0,3.226 -1.065,5.606 -3.174,7.193 -2.136,1.591 -4.837,2.381 -8.11,2.381 z M 560.784,1.689 549.523,69.705 h 13.02 l 4.369,-25.922 h 6.026 l 10.071,25.922 h 14.933 L 586.778,41.004 c 3.895,-1.982 7.245,-5.283 9.577,-8.729 C 598.784,28.727 600,24.584 600,19.847 600,13.423 598.561,8.807 595.658,5.955 592.783,3.104 588.685,1.689 583.429,1.689 Z"
       style="fill:#ffffff;fill-opacity:1"
       inkscape:connector-curvature="0" />
    <path
       id="path21"
       d="M 10.872,27.816 C 22.361,8.544 38.181,-3.486 46.204,0.907 54.209,5.319 51.388,24.515 39.874,43.774 28.384,63.049 12.567,75.076 4.562,70.682 -3.461,66.274 -0.621,47.072 10.872,27.816 Z"
       style="fill:#ffffff;fill-opacity:1"
       inkscape:connector-curvature="0" />
    <path
       id="path21_2_"
       d="M 62.277,27.816 C 73.77,8.544 89.587,-3.486 97.607,0.907 105.612,5.319 102.791,24.515 91.28,43.774 79.787,63.049 63.97,75.076 55.968,70.682 47.945,66.274 50.784,47.072 62.277,27.816 Z"
       style="fill:#ffffff;fill-opacity:1"
       inkscape:connector-curvature="0" />
    <path
       id="path21_3_"
       d="m 113.683,27.816 c 11.49,-19.275 27.31,-31.302 35.33,-26.912 8.005,4.412 5.183,23.611 -6.328,42.87 -11.492,19.275 -27.306,31.302 -35.311,26.905 -8.026,-4.405 -5.184,-23.607 6.309,-42.863 z"
       style="fill:#ffffff;fill-opacity:1"
       inkscape:connector-curvature="0" />
  </g>
  <path
     d="m 83.596193,43.816674 h -2.464 v -2.695 h -1.848 v 2.695 h -2.464 v -7.619 h 2.464 v 2.696 h 1.848 v -2.696 h 2.464 z m 3.353,-1.206 -0.286,1.206 h -2.601 l 1.998,-7.619 h 3.806 l 1.998,7.619 h -2.601 l -0.281,-1.206 z m 1.082,-4.071 h -0.136 l -0.506,2.134 h 1.135 z m 9.412,3.096 0.185,2.047 c -0.516,0.211 -1.164,0.317 -1.945,0.317 -0.78,0 -1.406,-0.081 -1.879,-0.244 -0.472,-0.162 -0.844,-0.418 -1.117,-0.766 -0.27,-0.351 -0.459,-0.762 -0.568,-1.232 -0.105,-0.473 -0.158,-1.055 -0.158,-1.746 0,-0.691 0.053,-1.273 0.158,-1.746 0.109,-0.476 0.298,-0.889 0.568,-1.241 0.525,-0.673 1.49,-1.01 2.895,-1.01 0.314,0 0.682,0.031 1.104,0.092 0.423,0.061 0.737,0.136 0.942,0.226 l -0.37,1.864 c -0.533,-0.114 -1.022,-0.17 -1.465,-0.17 -0.442,0 -0.75,0.04 -0.924,0.122 -0.173,0.082 -0.259,0.244 -0.259,0.487 v 3.196 c 0.319,0.064 0.644,0.095 0.972,0.095 0.698,0 1.319,-0.097 1.861,-0.291 z m 3.559997,-1.136 h -0.049 v 3.317 h -2.463997 v -7.619 h 2.463997 v 3.109 h 0.049 c 0.017,-0.244 0.058,-0.438 0.123,-0.584 l 1.21,-2.525 h 2.658 l -1.848,3.744 1.909,3.875 h -2.657 l -1.272,-2.73 c -0.065,-0.147 -0.106,-0.343 -0.123,-0.587 z m 4.485,3.183 0.343,-2.012 c 0.757,0.188 1.437,0.283 2.041,0.283 0.605,0 1.092,-0.025 1.461,-0.074 v -0.61 l -1.109,-0.1 c -1.003,-0.087 -1.69,-0.323 -2.063,-0.709 -0.375,-0.387 -0.563,-0.958 -0.563,-1.716 0,-1.039 0.228,-1.754 0.686,-2.146 0.455,-0.389 1.228,-0.584 2.319,-0.584 1.094,0 2.08,0.102 2.957,0.305 l -0.308,1.95 c -0.763,-0.121 -1.374,-0.182 -1.835,-0.182 -0.461,0 -0.851,0.02 -1.171,0.061 v 0.596 l 0.889,0.087 c 1.077,0.105 1.821,0.358 2.231,0.762 0.411,0.401 0.616,0.959 0.616,1.676 0,0.511 -0.07,0.944 -0.211,1.298 -0.141,0.354 -0.307,0.622 -0.497,0.805 -0.194,0.183 -0.468,0.323 -0.823,0.419 -0.352,0.098 -0.661,0.157 -0.929,0.178 -0.267,0.02 -0.621,0.03 -1.064,0.03 -1.068,0 -2.058,-0.106 -2.97,-0.317 z m 11.446,-2.792 h -1.909 v -1.754 h 1.909 v -1.89 h 1.773 v 1.89 h 1.923 v 1.754 h -1.923 v 1.903 h -1.773 z m 13.833,2.926 h -2.464 v -2.695 h -1.848 v 2.695 h -2.464 v -7.619 h 2.464 v 2.696 h 1.848 v -2.696 h 2.464 z m 0.862,-3.805 c 0,-1.388 0.263,-2.4 0.788,-3.039 0.525,-0.638 1.474,-0.958 2.847,-0.958 1.373,0 2.322,0.32 2.847,0.958 0.524,0.639 0.787,1.651 0.787,3.039 0,0.691 -0.056,1.273 -0.167,1.746 -0.111,0.47 -0.302,0.881 -0.572,1.232 -0.27,0.348 -0.644,0.604 -1.122,0.766 -0.475,0.163 -1.066,0.244 -1.773,0.244 -0.707,0 -1.298,-0.081 -1.773,-0.244 -0.479,-0.162 -0.853,-0.418 -1.122,-0.766 -0.27,-0.351 -0.461,-0.762 -0.572,-1.232 -0.112,-0.473 -0.168,-1.055 -0.168,-1.746 z m 2.649,-1.267 v 3.169 h 1.021 c 0.337,0 0.582,-0.037 0.735,-0.112 0.152,-0.078 0.229,-0.256 0.229,-0.532 v -3.169 h -1.034 c -0.329,0 -0.569,0.038 -0.722,0.113 -0.153,0.078 -0.229,0.256 -0.229,0.531 z m 7.898,1.381 -0.15,3.691 h -2.574 l 0.467,-7.619 h 3.216 l 0.964,3.875 h 0.083 l 0.964,-3.875 h 3.212 l 0.471,7.619 h -2.574 l -0.15,-3.691 h -0.088 l -0.933,3.691 h -1.887 l -0.946,-3.691 z m 12.503,-0.954 v 1.768 h -2.464 v 0.927 h 3.019 v 1.95 h -5.483 v -7.619 h 5.421 l -0.308,1.951 h -2.649 v 1.023 z m 6.023,4.645 h -4.422 v -7.619 h 3.991 c 0.739,0 1.267,0.143 1.584,0.427 0.317,0.285 0.475,0.699 0.475,1.245 0,0.543 -0.101,0.962 -0.303,1.258 -0.2,0.3 -0.468,0.492 -0.805,0.579 v 0.074 c 0.994,0.171 1.491,0.842 1.491,2.012 0,0.609 -0.164,1.1 -0.493,1.471 -0.328,0.369 -0.834,0.553 -1.518,0.553 z m -0.998,-3.034 h -0.96 v 1.24 h 0.951 c 0.343,0 0.515,-0.205 0.515,-0.618 0,-0.415 -0.169,-0.622 -0.506,-0.622 z m -0.185,-2.913 h -0.775 v 1.132 h 0.766 c 0.311,0 0.466,-0.189 0.466,-0.566 0,-0.378 -0.152,-0.566 -0.457,-0.566 z m 9.44,3.413 1.329,2.534 h -2.71 l -1.012,-2.268 h -0.528 v 2.268 h -2.464 v -7.619 h 3.881 c 1.765,0 2.648,0.89 2.648,2.669 0,1.219 -0.381,2.024 -1.144,2.416 z m -2.354,-3.134 h -0.567 v 1.523 h 0.567 c 0.297,0 0.512,-0.03 0.647,-0.091 0.135,-0.061 0.203,-0.202 0.203,-0.422 v -0.497 c 0,-0.221 -0.068,-0.361 -0.203,-0.421 -0.135,-0.062 -0.35,-0.092 -0.647,-0.092 z m 9.473,1.023 v 1.768 h -2.464 v 0.927 h 3.019 v 1.95 h -5.483 v -7.619 h 5.421 l -0.308,1.951 h -2.649 v 1.023 z m 7.933,1.28 0.594,-4.254 h 2.574 l -1.21,7.619 h -3.212 l -0.568,-2.804 h -0.149 l -0.555,2.804 h -3.216 l -1.206,-7.619 h 2.574 l 0.581,4.254 h 0.075 l 0.884,-4.254 h 1.888 l 0.871,4.254 z"
     style="white-space:pre;fill:#ffffff"
     id="path15"
     inkscape:connector-curvature="0" />
</svg>

<?xml version="1.0" encoding="utf-8"?>
<svg version="1.1" id="Layer_1" x="0px" y="0px" enable-background="new 0 0 566.929 67.639" viewBox="0 0 264 44" xmlns="http://www.w3.org/2000/svg">
  <g transform="matrix(0.44, 0, 0, 0.435372, -0.000108, 0.000185)">
    <path id="path5" d="M 225.74 59.585 C 220.683 66.455 215.674 68.407 213.483 69.46 C 211.296 70.516 207.98 71.343 205.08 71.343 C 196.943 71.343 190.594 68.691 186.029 63.405 C 181.464 58.097 179.183 50.657 179.183 41.004 C 179.183 29.596 182.061 19.919 187.842 11.932 C 193.621 3.97 201.284 0.002 210.834 0.002 C 218.079 0.002 224.005 2.036 228.645 6.127 C 233.283 10.198 235.591 16.597 235.591 25.302 L 221.576 25.302 C 221.576 21.135 220.656 18.208 218.818 16.522 C 216.986 14.859 214.352 14.014 210.907 14.014 C 205.276 14.014 200.934 16.769 197.833 22.252 C 194.758 27.758 193.192 34.007 193.192 41.028 C 193.192 45.817 194.212 49.736 196.194 52.76 C 198.204 55.813 201.203 57.325 205.201 57.325 C 209.368 57.325 212.59 56.133 214.923 53.776 C 217.231 51.447 218.942 48.418 220.034 44.721 L 206.984 44.721 L 209.096 32.022 L 234.544 32.022 L 232.387 44.323 C 232.39 44.329 230.776 52.714 225.74 59.585 L 225.74 59.585 Z" style="fill-opacity: 1; fill: rgb(255, 255, 255);"/>
    <polygon id="polygon9" points="346.74 1.764 335.355 69.684 323.102 69.684 332.751 17.044 311.467 69.684 301.423 69.684 296.785 17.068 289.462 69.684 277.064 69.684 288.397 1.764 305.789 1.764 309.684 49.588 329.23 1.637" style="fill-opacity: 1; fill: rgb(255, 255, 255);"/>
    <polygon id="polygon11" points="359.714 28.057 379.734 28.057 377.646 41.23 357.629 41.23 355.052 55.692 377.646 55.692 375.419 69.684 339.797 69.684 351.057 1.689 386.254 1.689 384.1 15.777 361.947 15.777" style="fill-opacity: 1; fill: rgb(255, 255, 255);"/>
    <path id="path13" d="M 253.028 1.637 L 225.643 69.684 L 238.989 69.684 L 243.874 56.411 L 261.338 56.411 L 262.478 69.684 L 275.401 69.684 L 267.662 1.64 L 253.028 1.64 Z M 248.116 44.803 L 258.04 17.738 L 260.345 44.803 L 248.116 44.803 Z" style="fill-opacity: 1; fill: rgb(255, 255, 255);"/>
    <path id="path5_1_" d="M 455.384 59.585 C 450.324 66.455 445.321 68.407 443.13 69.46 C 440.94 70.516 437.624 71.343 434.724 71.343 C 426.59 71.343 420.238 68.691 415.676 63.408 C 411.108 58.097 408.827 50.657 408.827 41.007 C 408.827 29.596 411.705 19.922 417.486 11.935 C 423.264 3.973 430.928 0.002 440.481 0.002 C 447.723 0.002 453.652 2.039 458.289 6.13 C 462.93 10.201 465.235 16.6 465.235 25.305 L 451.223 25.305 C 451.223 21.138 450.306 18.211 448.468 16.525 C 446.633 14.862 444.002 14.02 440.554 14.02 C 434.923 14.02 430.581 16.772 427.483 22.255 C 424.405 27.761 422.842 34.01 422.842 41.031 C 422.842 45.82 423.859 49.739 425.841 52.763 C 427.854 55.816 430.853 57.328 434.848 57.328 C 439.018 57.328 442.24 56.139 444.573 53.779 C 446.881 51.45 448.592 48.424 449.684 44.725 L 436.634 44.725 L 438.743 32.025 L 464.194 32.025 L 462.034 44.329 C 462.034 44.329 460.42 52.714 455.384 59.585 L 455.384 59.585 Z" style="fill-opacity: 1; fill: rgb(255, 255, 255);"/>
    <polygon id="polygon15" points="481.532 28.081 501.524 28.081 499.466 41.23 479.447 41.23 476.846 55.692 499.466 55.692 497.234 69.705 461.611 69.705 472.875 1.689 508.075 1.689 505.917 15.777 483.761 15.777" style="fill-opacity: 1; fill: rgb(255, 255, 255);"/>
    <path id="path17" d="M 525.783 1.665 L 498.398 69.708 L 511.771 69.708 L 516.629 56.435 L 534.117 56.435 L 535.258 69.708 L 548.157 69.708 L 540.417 1.665 L 525.783 1.665 Z M 520.895 44.8 L 530.795 17.738 L 533.127 44.8 L 520.895 44.8 Z" style="fill-opacity: 1; fill: rgb(255, 255, 255);"/>
    <path id="path19" d="M 568.846 31.578 L 571.824 14.835 L 578.966 14.835 C 581.594 14.835 583.556 15.306 584.871 16.25 C 586.184 17.216 586.829 19.126 586.829 22.004 C 586.829 25.23 585.764 27.61 583.655 29.197 C 581.519 30.788 578.818 31.578 575.545 31.578 L 568.846 31.578 L 568.846 31.578 Z M 560.784 1.689 L 549.523 69.705 L 562.543 69.705 L 566.912 43.783 L 572.938 43.783 L 583.009 69.705 L 597.942 69.705 L 586.778 41.004 C 590.673 39.022 594.023 35.721 596.355 32.275 C 598.784 28.727 600 24.584 600 19.847 C 600 13.423 598.561 8.807 595.658 5.955 C 592.783 3.104 588.685 1.689 583.429 1.689 L 560.784 1.689 L 560.784 1.689 Z" style="fill-opacity: 1; fill: rgb(255, 255, 255);"/>
    <path id="path21" d="M 10.872 27.816 C 22.361 8.544 38.181 -3.486 46.204 0.907 C 54.209 5.319 51.388 24.515 39.874 43.774 C 28.384 63.049 12.567 75.076 4.562 70.682 C -3.461 66.274 -0.621 47.072 10.872 27.816 Z" style="fill-opacity: 1; fill: rgb(255, 255, 255);"/>
    <path id="path21_2_" d="M 62.277 27.816 C 73.77 8.544 89.587 -3.486 97.607 0.907 C 105.612 5.319 102.791 24.515 91.28 43.774 C 79.787 63.049 63.97 75.076 55.968 70.682 C 47.945 66.274 50.784 47.072 62.277 27.816 Z" style="fill-opacity: 1; fill: rgb(255, 255, 255);"/>
    <path id="path21_3_" d="M 113.683 27.816 C 125.173 8.541 140.993 -3.486 149.013 0.904 C 157.018 5.316 154.196 24.515 142.685 43.774 C 131.193 63.049 115.379 75.076 107.374 70.679 C 99.348 66.274 102.19 47.072 113.683 27.816 Z" style="fill-opacity: 1; fill: rgb(255, 255, 255);"/>
  </g>
  <path d="M 83.596 43.817 L 81.132 43.817 L 81.132 41.122 L 79.284 41.122 L 79.284 43.817 L 76.82 43.817 L 76.82 36.198 L 79.284 36.198 L 79.284 38.894 L 81.132 38.894 L 81.132 36.198 L 83.596 36.198 L 83.596 43.817 Z M 86.949 42.611 L 86.663 43.817 L 84.062 43.817 L 86.06 36.198 L 89.866 36.198 L 91.864 43.817 L 89.263 43.817 L 88.982 42.611 L 86.949 42.611 Z M 88.031 38.54 L 87.895 38.54 L 87.389 40.674 L 88.524 40.674 L 88.031 38.54 Z M 97.443 41.636 L 97.628 43.683 C 97.112 43.894 96.464 44 95.683 44 C 94.903 44 94.277 43.919 93.804 43.756 C 93.332 43.594 92.96 43.338 92.687 42.99 C 92.417 42.639 92.228 42.228 92.119 41.758 C 92.014 41.285 91.961 40.703 91.961 40.012 C 91.961 39.321 92.014 38.739 92.119 38.266 C 92.228 37.79 92.417 37.377 92.687 37.025 C 93.212 36.352 94.177 36.015 95.582 36.015 C 95.896 36.015 96.264 36.046 96.686 36.107 C 97.109 36.168 97.423 36.243 97.628 36.333 L 97.258 38.197 C 96.725 38.083 96.236 38.027 95.793 38.027 C 95.351 38.027 95.043 38.067 94.869 38.149 C 94.696 38.231 94.61 38.393 94.61 38.636 L 94.61 41.832 C 94.929 41.896 95.254 41.927 95.582 41.927 C 96.28 41.927 96.901 41.83 97.443 41.636 Z M 101.003 40.5 L 100.954 40.5 L 100.954 43.817 L 98.49 43.817 L 98.49 36.198 L 100.954 36.198 L 100.954 39.307 L 101.003 39.307 C 101.02 39.063 101.061 38.869 101.126 38.723 L 102.336 36.198 L 104.994 36.198 L 103.146 39.942 L 105.055 43.817 L 102.398 43.817 L 101.126 41.087 C 101.061 40.94 101.02 40.744 101.003 40.5 Z M 105.488 43.683 L 105.831 41.671 C 106.588 41.859 107.268 41.954 107.872 41.954 C 108.477 41.954 108.964 41.929 109.333 41.88 L 109.333 41.27 L 108.224 41.17 C 107.221 41.083 106.534 40.847 106.161 40.461 C 105.786 40.074 105.598 39.503 105.598 38.745 C 105.598 37.706 105.826 36.991 106.284 36.599 C 106.739 36.21 107.512 36.015 108.603 36.015 C 109.697 36.015 110.683 36.117 111.56 36.32 L 111.252 38.27 C 110.489 38.149 109.878 38.088 109.417 38.088 C 108.956 38.088 108.566 38.108 108.246 38.149 L 108.246 38.745 L 109.135 38.832 C 110.212 38.937 110.956 39.19 111.366 39.594 C 111.777 39.995 111.982 40.553 111.982 41.27 C 111.982 41.781 111.912 42.214 111.771 42.568 C 111.63 42.922 111.464 43.19 111.274 43.373 C 111.08 43.556 110.806 43.696 110.451 43.792 C 110.099 43.89 109.79 43.949 109.522 43.97 C 109.255 43.99 108.901 44 108.458 44 C 107.39 44 106.4 43.894 105.488 43.683 Z M 116.934 40.891 L 115.025 40.891 L 115.025 39.137 L 116.934 39.137 L 116.934 37.247 L 118.707 37.247 L 118.707 39.137 L 120.63 39.137 L 120.63 40.891 L 118.707 40.891 L 118.707 42.794 L 116.934 42.794 L 116.934 40.891 Z M 130.767 43.817 L 128.303 43.817 L 128.303 41.122 L 126.455 41.122 L 126.455 43.817 L 123.991 43.817 L 123.991 36.198 L 126.455 36.198 L 126.455 38.894 L 128.303 38.894 L 128.303 36.198 L 130.767 36.198 L 130.767 43.817 Z M 131.629 40.012 C 131.629 38.624 131.892 37.612 132.417 36.973 C 132.942 36.335 133.891 36.015 135.264 36.015 C 136.637 36.015 137.586 36.335 138.111 36.973 C 138.635 37.612 138.898 38.624 138.898 40.012 C 138.898 40.703 138.842 41.285 138.731 41.758 C 138.62 42.228 138.429 42.639 138.159 42.99 C 137.889 43.338 137.515 43.594 137.037 43.756 C 136.562 43.919 135.971 44 135.264 44 C 134.557 44 133.966 43.919 133.491 43.756 C 133.012 43.594 132.638 43.338 132.369 42.99 C 132.099 42.639 131.908 42.228 131.797 41.758 C 131.685 41.285 131.629 40.703 131.629 40.012 Z M 134.278 38.745 L 134.278 41.914 L 135.299 41.914 C 135.636 41.914 135.881 41.877 136.034 41.802 C 136.186 41.724 136.263 41.546 136.263 41.27 L 136.263 38.101 L 135.229 38.101 C 134.9 38.101 134.66 38.139 134.507 38.214 C 134.354 38.292 134.278 38.47 134.278 38.745 Z M 142.176 40.126 L 142.026 43.817 L 139.452 43.817 L 139.919 36.198 L 143.135 36.198 L 144.099 40.073 L 144.182 40.073 L 145.146 36.198 L 148.358 36.198 L 148.829 43.817 L 146.255 43.817 L 146.105 40.126 L 146.017 40.126 L 145.084 43.817 L 143.197 43.817 L 142.251 40.126 L 142.176 40.126 Z M 154.679 39.172 L 154.679 40.94 L 152.215 40.94 L 152.215 41.867 L 155.234 41.867 L 155.234 43.817 L 149.751 43.817 L 149.751 36.198 L 155.172 36.198 L 154.864 38.149 L 152.215 38.149 L 152.215 39.172 L 154.679 39.172 Z M 160.702 43.817 L 156.28 43.817 L 156.28 36.198 L 160.271 36.198 C 161.01 36.198 161.538 36.341 161.855 36.625 C 162.172 36.91 162.33 37.324 162.33 37.87 C 162.33 38.413 162.229 38.832 162.027 39.128 C 161.827 39.428 161.559 39.62 161.222 39.707 L 161.222 39.781 C 162.216 39.952 162.713 40.623 162.713 41.793 C 162.713 42.402 162.549 42.893 162.22 43.264 C 161.892 43.633 161.386 43.817 160.702 43.817 Z M 159.704 40.783 L 158.744 40.783 L 158.744 42.023 L 159.695 42.023 C 160.038 42.023 160.21 41.818 160.21 41.405 C 160.21 40.99 160.041 40.783 159.704 40.783 Z M 159.519 37.87 L 158.744 37.87 L 158.744 39.002 L 159.51 39.002 C 159.821 39.002 159.976 38.813 159.976 38.436 C 159.976 38.058 159.824 37.87 159.519 37.87 Z M 168.959 41.283 L 170.288 43.817 L 167.578 43.817 L 166.566 41.549 L 166.038 41.549 L 166.038 43.817 L 163.574 43.817 L 163.574 36.198 L 167.455 36.198 C 169.22 36.198 170.103 37.088 170.103 38.867 C 170.103 40.086 169.722 40.891 168.959 41.283 Z M 166.605 38.149 L 166.038 38.149 L 166.038 39.672 L 166.605 39.672 C 166.902 39.672 167.117 39.642 167.252 39.581 C 167.387 39.52 167.455 39.379 167.455 39.159 L 167.455 38.662 C 167.455 38.441 167.387 38.301 167.252 38.241 C 167.117 38.179 166.902 38.149 166.605 38.149 Z M 176.078 39.172 L 176.078 40.94 L 173.614 40.94 L 173.614 41.867 L 176.633 41.867 L 176.633 43.817 L 171.15 43.817 L 171.15 36.198 L 176.571 36.198 L 176.263 38.149 L 173.614 38.149 L 173.614 39.172 L 176.078 39.172 Z M 184.011 40.452 L 184.605 36.198 L 187.179 36.198 L 185.969 43.817 L 182.757 43.817 L 182.189 41.013 L 182.04 41.013 L 181.485 43.817 L 178.269 43.817 L 177.063 36.198 L 179.637 36.198 L 180.218 40.452 L 180.293 40.452 L 181.177 36.198 L 183.065 36.198 L 183.936 40.452 L 184.011 40.452 Z" style="fill: rgb(255, 255, 255); white-space: pre;"/>
</svg>
